X:1
T:Bert Ferguson
C:Ian Burns
R: jig
M: 6/8
K: A
|:B|"A"cBc E2B|cBc e2E|"D"F2A BAB|"E7"cec BAB|
"A"cBc E2B|cBc e2E|"D"FAA BAF|1"E7"EAA "A"A2:|2"E7"EAA "A"Ace||
|:"D"f2f fec|"E7"efg "A"a2e|"D"f2f fec|"E7"fBB Bce|
"D"f2f fec|"A"edc cBA|"Bm"FA(A B)AF|1"E7"EAA "A"Ace:|2"E7"EAA "A"A2|]
